assets/svg/delete.svg

<?xml version="1.0" encoding="UTF-8"?>
<svg width="1000px" height="1000px" viewBox="0 0 1000 1000" version="1.1" xmlns="http://www.w3.org/2000/svg" xmlns:xlink="http://www.w3.org/1999/xlink">
    <!-- Generator: sketchtool 52.4 (67378) - http://www.bohemiancoding.com/sketch -->
    <title>delete</title>
    <desc>Created with sketchtool.</desc>
    <g id="新版图标" stroke="none" stroke-width="1" fill="none" fill-rule="evenodd">
        <g id="delete" fill="#323233">
            <path d="M141,434.9551 C141,434.9801 140.98,435.0001 140.955,435.0001 L131.045,435.0001 C131.02,435.0001 131,434.9801 131,434.9551 L131,425.0001 L141,425.0001 L141,434.9551 Z M142.5,424.0001 L142,424.0001 L130,424.0001 L129.5,424.0001 C129.224,424.0001 129,424.2241 129,424.5001 C129,424.7761 129.224,425.0001 129.5,425.0001 L130,425.0001 L130,434.9551 C130,435.5321 130.468,436.0001 131.045,436.0001 L140.955,436.0001 C141.532,436.0001 142,435.5321 142,434.9551 L142,425.0001 L142.5,425.0001 C142.776,425.0001 143,424.7761 143,424.5001 C143,424.2241 142.776,424.0001 142.5,424.0001 Z M138.5,433 C138.776,433 139,432.776 139,432.5 L139,427.5 C139,427.224 138.776,427 138.5,427 C138.224,427 138,427.224 138,427.5 L138,432.5 C138,432.776 138.224,433 138.5,433 M133.5,433 C133.776,433 134,432.776 134,432.5 L134,427.5 C134,427.224 133.776,427 133.5,427 C133.224,427 133,427.224 133,427.5 L133,432.5 C133,432.776 133.224,433 133.5,433 M136,433 C136.276,433 136.5,432.776 136.5,432.5 L136.5,427.5 C136.5,427.224 136.276,427 136,427 C135.724,427 135.5,427.224 135.5,427.5 L135.5,432.5 C135.5,432.776 135.724,433 136,433 M132.5,423 L139.5,423 C139.776,423 140,422.776 140,422.5 C140,422.224 139.776,422 139.5,422 L132.5,422 C132.224,422 132,422.224 132,422.5 C132,422.776 132.224,423 132.5,423" id="Fill-1"></path>
            <g id="圆角-删除-线">
                <path d="M777.777778,830.838889 C777.777778,832.227778 776.666667,833.338889 775.277778,833.338889 L224.722222,833.338889 C223.333333,833.338889 222.222222,832.227778 222.222222,830.838889 L222.222222,277.783333 L777.777778,277.783333 L777.777778,830.838889 Z M861.111111,222.227778 L833.333333,222.227778 L166.666667,222.227778 L138.888889,222.227778 C123.555556,222.227778 111.111111,234.672222 111.111111,250.005556 C111.111111,265.338889 123.555556,277.783333 138.888889,277.783333 L166.666667,277.783333 L166.666667,830.838889 C166.666667,862.894444 192.666667,888.894444 224.722222,888.894444 L775.277778,888.894444 C807.333333,888.894444 833.333333,862.894444 833.333333,830.838889 L833.333333,277.783333 L861.111111,277.783333 C876.444444,277.783333 888.888889,265.338889 888.888889,250.005556 C888.888889,234.672222 876.444444,222.227778 861.111111,222.227778 Z M638.888889,722.222222 C654.222222,722.222222 666.666667,709.777778 666.666667,694.444444 L666.666667,416.666667 C666.666667,401.333333 654.222222,388.888889 638.888889,388.888889 C623.555556,388.888889 611.111111,401.333333 611.111111,416.666667 L611.111111,694.444444 C611.111111,709.777778 623.555556,722.222222 638.888889,722.222222 M361.111111,722.222222 C376.444444,722.222222 388.888889,709.777778 388.888889,694.444444 L388.888889,416.666667 C388.888889,401.333333 376.444444,388.888889 361.111111,388.888889 C345.777778,388.888889 333.333333,401.333333 333.333333,416.666667 L333.333333,694.444444 C333.333333,709.777778 345.777778,722.222222 361.111111,722.222222 M500,722.222222 C515.333333,722.222222 527.777778,709.777778 527.777778,694.444444 L527.777778,416.666667 C527.777778,401.333333 515.333333,388.888889 500,388.888889 C484.666667,388.888889 472.222222,401.333333 472.222222,416.666667 L472.222222,694.444444 C472.222222,709.777778 484.666667,722.222222 500,722.222222 M305.555556,166.666667 L694.444444,166.666667 C709.777778,166.666667 722.222222,154.222222 722.222222,138.888889 C722.222222,123.555556 709.777778,111.111111 694.444444,111.111111 L305.555556,111.111111 C290.222222,111.111111 277.777778,123.555556 277.777778,138.888889 C277.777778,154.222222 290.222222,166.666667 305.555556,166.666667" id="Fill-1"></path>
            </g>
        </g>
    </g>
</svg>

<svg width="1000" height="1000" xmlns="http://www.w3.org/2000/svg"><g fill="#323233" fill-rule="evenodd"><path d="M141 434.955c0 .025-.02.045-.045.045h-9.91a.045.045 0 0 1-.045-.045V425h10v9.955zM142.5 424h-13a.5.5 0 0 0 0 1h.5v9.955c0 .577.468 1.045 1.045 1.045h9.91c.577 0 1.045-.468 1.045-1.045V425h.5a.5.5 0 0 0 0-1zm-4 9a.5.5 0 0 0 .5-.5v-5a.5.5 0 0 0-1 0v5a.5.5 0 0 0 .5.5m-5 0a.5.5 0 0 0 .5-.5v-5a.5.5 0 0 0-1 0v5a.5.5 0 0 0 .5.5m2.5 0a.5.5 0 0 0 .5-.5v-5a.5.5 0 0 0-1 0v5a.5.5 0 0 0 .5.5m-3.5-10h7a.5.5 0 0 0 0-1h-7a.5.5 0 0 0 0 1"/><path d="M777.778 830.839a2.49 2.49 0 0 1-2.5 2.5H224.722a2.49 2.49 0 0 1-2.5-2.5V277.783h555.556V830.84zm83.333-608.611H138.89c-15.333 0-27.778 12.444-27.778 27.778 0 15.333 12.445 27.777 27.778 27.777h27.778V830.84c0 32.055 26 58.055 58.055 58.055h550.556c32.055 0 58.055-26 58.055-58.055V277.783h27.778c15.333 0 27.778-12.444 27.778-27.777 0-15.334-12.445-27.778-27.778-27.778zM638.89 722.222c15.333 0 27.778-12.444 27.778-27.778V416.667c0-15.334-12.445-27.778-27.778-27.778-15.333 0-27.778 12.444-27.778 27.778v277.777c0 15.334 12.445 27.778 27.778 27.778m-277.778 0c15.333 0 27.778-12.444 27.778-27.778V416.667c0-15.334-12.445-27.778-27.778-27.778-15.333 0-27.778 12.444-27.778 27.778v277.777c0 15.334 12.445 27.778 27.778 27.778m138.889 0c15.333 0 27.778-12.444 27.778-27.778V416.667c0-15.334-12.445-27.778-27.778-27.778-15.333 0-27.778 12.444-27.778 27.778v277.777c0 15.334 12.445 27.778 27.778 27.778M305.556 166.667h388.888c15.334 0 27.778-12.445 27.778-27.778 0-15.333-12.444-27.778-27.778-27.778H305.556c-15.334 0-27.778 12.445-27.778 27.778 0 15.333 12.444 27.778 27.778 27.778"/></g></svg>
